svg/u1f3c1.svg

<svg viewBox="0 0 128 128" xmlns="http://www.w3.org/2000/svg">
  <path d="M13.56,15.85c-0.18-1.27-0.39-6.82-5.23-6.33C4.28,9.93,4.5,14.28,4.89,16.3 c0.22,1.15,13.22,104.18,13.39,105.28c0.23,1.47,2.28,3,4.62,2.76c2.34-0.23,3.71-2.05,3.66-3.78 C26.53,119.24,13.79,17.58,13.56,15.85z" fill="#B0B0B0"/>
  <path d="M21.41,116.33c-0.62,0-1.16-0.46-1.24-1.09L7.07,14.12c-0.09-0.68,0.39-1.31,1.08-1.4 c0.69-0.09,1.31,0.4,1.4,1.08l13.1,101.12c0.09,0.68-0.39,1.31-1.08,1.4C21.52,116.32,21.47,116.33,21.41,116.33z" fill="#C8C8C8"/>
  <path d="M16.01,14.19l-2.45,1.66c0,0,7.97,70.36,8.27,70.46c0.3,0.1,17.44-12.91,32.12-13.01 c13.57-0.09,17.47,6.14,38.07,6.89c11.55,0.42,23.91-7.28,23.91-7.28L16.01,14.19z" fill="#9B9B9B"/>
  <path d="M16.01,18.13l-0.46-3.64c0,0,10.08-8.14,22.74-7.45s25.51,12.08,43.46,10.15 c10.61-1.14,16.54-6.16,16.54-6.16l12.79,4.59l9.46,39.21l-10.27,9.81c0,0-77.69-27.15-78.37-27.95 C31.22,35.9,16.01,18.13,16.01,18.13z" fill="#DACEC9"/>
  <polygon points="17.9,27.78 15.15,29.96 16.64,42.84 20,40.03 " fill="#2F2F2F"/>
  <polygon points="20.45,54.48 18.16,56.11 19.82,70.3 23.66,67.98 " fill="#2F2F2F"/>
  <path d="M37.55,73.79c0.06,0.43,0.45,3.45,0.45,3.45s6.18-2.78,11.53-3.43c4.38-0.54,7.63-0.4,7.63-0.4 l-0.44-2.97l-11.31-0.78L37.55,73.79z" fill="#2F2F2F"/>
  <path d="M74.22,74.39l0.56,3.34c0,0,2.56,0.81,7.2,1.56c5.83,0.95,9.48,0.96,9.99,0.94l-0.56-4.85 l-10.37-2.76L74.22,74.39z" fill="#2F2F2F"/>
  <path d="M107.76,73.62l0.51,3.12c0,0,4.02-1.36,8.93-4.24c3.72-2.19,6.32-4.15,6.35-4.41 c0.03-0.26-0.58-2.92-0.71-3.34c-0.13-0.42-1.22-1.35-1.22-1.35L107.76,73.62z" fill="#2F2F2F"/>
  <path d="M23.69,81.19l-7.68-63.06c0,0,9.51-9.49,23.2-7.67s29.1,11.31,42.56,9.49 c13.46-1.83,23.49-9.6,23.49-9.6l2.28,2.4l11.18,46.2l-10.95,14.69c0,0-7.64,3.56-18.02,2.99c-21.71-1.19-23.81-7.74-40.4-5.94 c-4.4,0.48-8.65,1.84-12.4,3.36C29.23,77.17,23.69,81.19,23.69,81.19z" fill="#F1EDEC"/>
  <path d="M28.24,8.23l1.72,13.56c0,0-4.41,1.31-7.76,3.07c-2.54,1.33-4.97,3.45-4.97,3.45l1.58,12.72 c0,0,2.98-2.11,6.56-3.75c2.4-1.1,5.91-2.04,5.91-2.04l2.07,12.99c0,0-4.69,1.61-7.34,3.02s-5.55,3.22-5.55,3.22l1.74,14.4 c0,0,4.09-2.45,5.99-3.39c3.12-1.54,7.68-3.28,7.68-3.28l1.7,11.59c0,0,5.94-2.14,9.88-2.76c5.35-0.83,9.3-0.61,9.3-0.61 l-1.62-10.74c0,0,3.78-0.22,8.36,0.79c4.17,0.92,8.62,1.96,8.62,1.96l2.14,11.94c0,0,2.83,0.91,8.06,1.67 c5.24,0.76,9.28,0.64,9.28,0.64L90,64.89c0,0,4.12-0.28,7.85-0.85c3.73-0.56,7.74-1.94,7.74-1.94l2.17,11.54 c0,0,4.29-1.92,7.95-4.12c4.43-2.66,7.13-4.82,7.13-4.82l-2.3-9.87c0,0-4.16,2.33-6.84,3.69c-3.48,1.75-7.83,3.24-7.83,3.24 l-2.31-12.51c0,0,4.4-1.8,7.17-3.16c3.11-1.52,6.75-4.04,6.75-4.04l-3.39-13.96c0,0-3.55,2.26-6.8,4.11 c-2.66,1.51-6.15,3.33-6.55,3.22s-2.69-10.79-2.6-11.07c0.04-0.13,3.14-1.54,7.44-4.37c2.28-1.5,5.52-4.34,5.52-4.34 s-1.79-9.93-2.11-11.05s-1.41-1.76-2.52-0.67s-4.25,3.93-5.69,5.17s-5.2,3.77-5.2,3.77s2.21,10.92,2.11,11.14 c-0.08,0.15-1.87,1.1-7.49,2.41c-4.59,1.07-7.6,1.11-7.6,1.11s-0.64-3.09-1.04-5.2c-0.44-2.28-1.07-5.01-1.07-5.01 s-3.65,0.26-9.02-0.4c-4.2-0.51-8.12-1.95-8.12-1.95s0.81,2.22,1.12,4.69c0.23,1.86,0.98,5.67,0.98,5.67s-3.87-1.51-8.28-2.66 c-4.41-1.15-8.69-1.44-8.69-1.44s-0.45-4.15-0.77-7.41s-0.37-4.82-0.37-4.82s-4.8-1.8-9.4-2.02C32.68,6.72,28.24,8.23,28.24,8.23z" fill="#434343"/>
  <path d="M30.29,22.28c-0.07,0.28,1.1,12.24,1.25,12.35c0.15,0.11,4.56-0.87,8.85-1.25s9.97,0.01,9.97,0.01 l-1.91-11.94c0,0-5.48-0.96-9.54-0.8C34.85,20.8,30.33,22.13,30.29,22.28z" fill="#F1EDEC"/>
  <path d="M33.76,48.5l2.15,13.3c0,0,3.99-1.56,9.12-2.2s9.75-0.26,9.75-0.26l-2.36-12.75 c0,0-5.24-0.67-9.83-0.28C37.17,46.75,33.76,48.5,33.76,48.5z" fill="#F1EDEC"/>
  <path d="M50.67,33.94l1.96,12.16c0,0,5.36,0.57,8.29,1.14c2.93,0.57,8.23,1.71,8.35,1.6 c0.11-0.11-1.34-11.29-1.76-11.67c-0.42-0.38-4.68-1.25-7.98-1.94C56.21,34.55,50.7,33.56,50.67,33.94z" fill="#F1EDEC"/>
  <path d="M65.89,25.63c-0.12,0.06,1.37,10.75,1.86,11.25c0.49,0.49,5.35,1.37,8.1,1.74 c4.02,0.53,8.9,0.55,9.09,0.44c0.19-0.11-2.4-11.11-2.44-11.18c-0.16-0.25-2.66,0.15-7.9-0.42C69.28,26.87,66.04,25.55,65.89,25.63z " fill="#F1EDEC"/>
  <path d="M85.31,39.34c-0.14,0.14,2.12,12.44,2.25,12.61c0.31,0.41,4.56-0.15,7.67-0.72 c4.55-0.83,8.01-2.13,8.01-2.13s-2.56-12.76-2.68-12.87c-0.11-0.11-3.41,1.47-7.88,2.27C88.04,39.34,85.5,39.15,85.31,39.34z" fill="#F1EDEC"/>
  <path d="M69.78,49.32c-0.04,0.23,2.39,12.58,2.46,13.06c0.04,0.25,3.92,1.13,7.83,1.7 c4.45,0.65,9.82,0.79,9.82,0.79s-1.18-5.38-1.61-7.86c-0.45-2.56-0.94-4.79-0.94-4.79s-4.57-0.38-8.98-1.06 C73.95,50.48,69.78,49.32,69.78,49.32z" fill="#F1EDEC"/>
</svg>

<svg viewBox="0 0 128 128" xmlns="http://www.w3.org/2000/svg">
  <defs/>
  <path d="M13.56,15.85 C13.38,14.58 13.17,9.03 8.33,9.52 C4.28,9.93 4.5,14.28 4.89,16.3 C5.11,17.45 18.11,120.48 18.28,121.58 C18.51,123.05 20.56,124.58 22.9,124.34 C25.24,124.11 26.61,122.29 26.56,120.56 C26.53,119.24 13.79,17.58 13.56,15.85 Z" fill="#B0B0B0"/>
  <path d="M21.41,116.33 C20.79,116.33 20.25,115.87 20.17,115.24 L7.07,14.12 C6.98,13.44 7.46,12.81 8.15,12.72 C8.84,12.63 9.46,13.12 9.55,13.8 L22.65,114.92 C22.74,115.6 22.26,116.23 21.57,116.32 C21.52,116.32 21.47,116.33 21.41,116.33 Z" fill="#C8C8C8"/>
  <path d="M16.01,14.19 L13.56,15.85 C13.56,15.85 21.53,86.21 21.83,86.31 C22.13,86.41 39.27,73.4 53.95,73.3 C67.52,73.21 71.42,79.44 92.02,80.19 C103.57,80.61 115.93,72.91 115.93,72.91 L16.01,14.19 Z" fill="#9B9B9B"/>
  <path d="M16.01,18.13 L15.55,14.49 C15.55,14.49 25.63,6.35 38.29,7.04 C50.95,7.73 63.8,19.12 81.75,17.19 C92.36,16.05 98.29,11.03 98.29,11.03 L111.08,15.62 L120.54,54.83 L110.27,64.64 C110.27,64.64 32.58,37.49 31.9,36.69 C31.22,35.9 16.01,18.13 16.01,18.13 Z" fill="#DACEC9"/>
  <path d="M17.9,27.78 L15.15,29.96 L16.64,42.84 L20,40.03 Z" fill="#2F2F2F"/>
  <path d="M20.45,54.48 L18.16,56.11 L19.82,70.3 L23.66,67.98 Z" fill="#2F2F2F"/>
  <path d="M37.55,73.79 C37.61,74.22 38,77.24 38,77.24 C38,77.24 44.18,74.46 49.53,73.81 C53.91,73.27 57.16,73.41 57.16,73.41 L56.72,70.44 L45.41,69.66 L37.55,73.79 Z" fill="#2F2F2F"/>
  <path d="M74.22,74.39 L74.78,77.73 C74.78,77.73 77.34,78.54 81.98,79.29 C87.81,80.24 91.46,80.25 91.97,80.23 L91.41,75.38 L81.04,72.62 L74.22,74.39 Z" fill="#2F2F2F"/>
  <path d="M107.76,73.62 L108.27,76.74 C108.27,76.74 112.29,75.38 117.2,72.5 C120.92,70.31 123.52,68.35 123.55,68.09 C123.58,67.83 122.97,65.17 122.84,64.75 C122.71,64.33 121.62,63.4 121.62,63.4 L107.76,73.62 Z" fill="#2F2F2F"/>
  <path d="M23.69,81.19 L16.01,18.13 C16.01,18.13 25.52,8.64 39.21,10.46 C52.9,12.28 68.31,21.77 81.77,19.95 C95.23,18.12 105.26,10.35 105.26,10.35 L107.54,12.75 L118.72,58.95 L107.77,73.64 C107.77,73.64 100.13,77.2 89.75,76.63 C68.04,75.44 65.94,68.89 49.35,70.69 C44.95,71.17 40.7,72.53 36.95,74.05 C29.23,77.17 23.69,81.19 23.69,81.19 Z" fill="#F1EDEC"/>
  <path d="M28.24,8.23 L29.96,21.79 C29.96,21.79 25.55,23.1 22.2,24.86 C19.66,26.19 17.23,28.31 17.23,28.31 L18.81,41.03 C18.81,41.03 21.79,38.92 25.37,37.28 C27.77,36.18 31.28,35.24 31.28,35.24 L33.35,48.23 C33.35,48.23 28.66,49.84 26.01,51.25 C23.36,52.66 20.46,54.47 20.46,54.47 L22.2,68.87 C22.2,68.87 26.29,66.42 28.19,65.48 C31.31,63.94 35.87,62.2 35.87,62.2 L37.57,73.79 C37.57,73.79 43.51,71.65 47.45,71.03 C52.8,70.2 56.75,70.42 56.75,70.42 L55.13,59.68 C55.13,59.68 58.91,59.46 63.49,60.47 C67.66,61.39 72.11,62.43 72.11,62.43 L74.25,74.37 C74.25,74.37 77.08,75.28 82.31,76.04 C87.55,76.8 91.59,76.68 91.59,76.68 L90,64.89 C90,64.89 94.12,64.61 97.85,64.04 C101.58,63.48 105.59,62.1 105.59,62.1 L107.76,73.64 C107.76,73.64 112.05,71.72 115.71,69.52 C120.14,66.86 122.84,64.7 122.84,64.7 L120.54,54.83 C120.54,54.83 116.38,57.16 113.7,58.52 C110.22,60.27 105.87,61.76 105.87,61.76 L103.56,49.25 C103.56,49.25 107.96,47.45 110.73,46.09 C113.84,44.57 117.48,42.05 117.48,42.05 L114.09,28.09 C114.09,28.09 110.54,30.35 107.29,32.2 C104.63,33.71 101.14,35.53 100.74,35.42 C100.34,35.31 98.05,24.63 98.14,24.35 C98.18,24.22 101.28,22.81 105.58,19.98 C107.86,18.48 111.1,15.64 111.1,15.64 C111.1,15.64 109.31,5.71 108.99,4.59 C108.67,3.47 107.58,2.83 106.47,3.92 C105.36,5.01 102.22,7.85 100.78,9.09 C99.34,10.33 95.58,12.86 95.58,12.86 C95.58,12.86 97.79,23.78 97.69,24 C97.61,24.15 95.82,25.1 90.2,26.41 C85.61,27.48 82.6,27.52 82.6,27.52 C82.6,27.52 81.96,24.43 81.56,22.32 C81.12,20.04 80.49,17.31 80.49,17.31 C80.49,17.31 76.84,17.57 71.47,16.91 C67.27,16.4 63.35,14.96 63.35,14.96 C63.35,14.96 64.16,17.18 64.47,19.65 C64.7,21.51 65.45,25.32 65.45,25.32 C65.45,25.32 61.58,23.81 57.17,22.66 C52.76,21.51 48.48,21.22 48.48,21.22 C48.48,21.22 48.03,17.07 47.71,13.81 C47.39,10.55 47.34,8.99 47.34,8.99 C47.34,8.99 42.54,7.19 37.94,6.97 C32.68,6.72 28.24,8.23 28.24,8.23 Z" fill="#434343"/>
  <path d="M30.29,22.28 C30.22,22.56 31.39,34.52 31.54,34.63 C31.69,34.74 36.1,33.76 40.39,33.38 C44.68,33 50.36,33.39 50.36,33.39 L48.45,21.45 C48.45,21.45 42.97,20.49 38.91,20.65 C34.85,20.8 30.33,22.13 30.29,22.28 Z" fill="#F1EDEC"/>
  <path d="M33.76,48.5 L35.91,61.8 C35.91,61.8 39.9,60.24 45.03,59.6 C50.16,58.96 54.78,59.34 54.78,59.34 L52.42,46.59 C52.42,46.59 47.18,45.92 42.59,46.31 C37.17,46.75 33.76,48.5 33.76,48.5 Z" fill="#F1EDEC"/>
  <path d="M50.67,33.94 L52.63,46.1 C52.63,46.1 57.99,46.67 60.92,47.24 C63.85,47.81 69.15,48.95 69.27,48.84 C69.38,48.73 67.93,37.55 67.51,37.17 C67.09,36.79 62.83,35.92 59.53,35.23 C56.21,34.55 50.7,33.56 50.67,33.94 Z" fill="#F1EDEC"/>
  <path d="M65.89,25.63 C65.77,25.69 67.26,36.38 67.75,36.88 C68.24,37.37 73.1,38.25 75.85,38.62 C79.87,39.15 84.75,39.17 84.94,39.06 C85.13,38.95 82.54,27.95 82.5,27.88 C82.34,27.63 79.84,28.03 74.6,27.46 C69.28,26.87 66.04,25.55 65.89,25.63 Z" fill="#F1EDEC"/>
  <path d="M85.31,39.34 C85.17,39.48 87.43,51.78 87.56,51.95 C87.87,52.36 92.12,51.8 95.23,51.23 C99.78,50.4 103.24,49.1 103.24,49.1 C103.24,49.1 100.68,36.34 100.56,36.23 C100.45,36.12 97.15,37.7 92.68,38.5 C88.04,39.34 85.5,39.15 85.31,39.34 Z" fill="#F1EDEC"/>
  <path d="M69.78,49.32 C69.74,49.55 72.17,61.9 72.24,62.38 C72.28,62.63 76.16,63.51 80.07,64.08 C84.52,64.73 89.89,64.87 89.89,64.87 C89.89,64.87 88.71,59.49 88.28,57.01 C87.83,54.45 87.34,52.22 87.34,52.22 C87.34,52.22 82.77,51.84 78.36,51.16 C73.95,50.48 69.78,49.32 69.78,49.32 Z" fill="#F1EDEC"/>
</svg>
